styles/6/Numix-Circle/48x48/apps/mansa.svg

<?xml version="1.0" encoding="UTF-8" standalone="no"?>
<svg
   xmlns:dc="http://purl.org/dc/elements/1.1/"
   xmlns:cc="http://creativecommons.org/ns#"
   xmlns:rdf="http://www.w3.org/1999/02/22-rdf-syntax-ns#"
   xmlns:svg="http://www.w3.org/2000/svg"
   xmlns="http://www.w3.org/2000/svg"
   xmlns:sodipodi="http://sodipodi.sourceforge.net/DTD/sodipodi-0.dtd"
   xmlns:inkscape="http://www.inkscape.org/namespaces/inkscape"
   viewBox="0 0 48 48"
   id="svg2"
   version="1.1"
   inkscape:version="0.91 r"
   width="100%"
   height="100%"
   sodipodi:docname="mansa.svg">
  <metadata
     id="metadata65">
    <rdf:RDF>
      <cc:Work
         rdf:about="">
        <dc:format>image/svg+xml</dc:format>
        <dc:type
           rdf:resource="http://purl.org/dc/dcmitype/StillImage" />
      </cc:Work>
    </rdf:RDF>
  </metadata>
  <sodipodi:namedview
     pagecolor="#ffffff"
     bordercolor="#666666"
     borderopacity="1"
     objecttolerance="10"
     gridtolerance="10"
     guidetolerance="10"
     inkscape:pageopacity="0"
     inkscape:pageshadow="2"
     inkscape:window-width="1280"
     inkscape:window-height="998"
     id="namedview63"
     showgrid="true"
     inkscape:zoom="13.906433"
     inkscape:cx="7.9576013"
     inkscape:cy="21.200209"
     inkscape:window-x="0"
     inkscape:window-y="0"
     inkscape:window-maximized="1"
     inkscape:current-layer="svg2">
    <inkscape:grid
       type="xygrid"
       id="grid3051" />
  </sodipodi:namedview>
  <defs
     id="defs4">
    <linearGradient
       id="linearGradient3764"
       x1="1"
       x2="47"
       gradientUnits="userSpaceOnUse"
       gradientTransform="matrix(0,-1,1,0,-1.5e-6,47.999998)">
      <stop
         stop-color="#b94f33"
         stop-opacity="1"
         id="stop7" />
      <stop
         offset="1"
         stop-color="#c85637"
         stop-opacity="1"
         id="stop9" />
    </linearGradient>
  </defs>
  <g
     id="g21">
    <path
       d="m 36.31 5 c 5.859 4.062 9.688 10.831 9.688 18.5 c 0 12.426 -10.07 22.5 -22.5 22.5 c -7.669 0 -14.438 -3.828 -18.5 -9.688 c 1.037 1.822 2.306 3.499 3.781 4.969 c 4.085 3.712 9.514 5.969 15.469 5.969 c 12.703 0 23 -10.298 23 -23 c 0 -5.954 -2.256 -11.384 -5.969 -15.469 c -1.469 -1.475 -3.147 -2.744 -4.969 -3.781 z m 4.969 3.781 c 3.854 4.113 6.219 9.637 6.219 15.719 c 0 12.703 -10.297 23 -23 23 c -6.081 0 -11.606 -2.364 -15.719 -6.219 c 4.16 4.144 9.883 6.719 16.219 6.719 c 12.703 0 23 -10.298 23 -23 c 0 -6.335 -2.575 -12.06 -6.719 -16.219 z"
       opacity="0.05"
       id="path23" />
    <path
       d="m 41.28 8.781 c 3.712 4.085 5.969 9.514 5.969 15.469 c 0 12.703 -10.297 23 -23 23 c -5.954 0 -11.384 -2.256 -15.469 -5.969 c 4.113 3.854 9.637 6.219 15.719 6.219 c 12.703 0 23 -10.298 23 -23 c 0 -6.081 -2.364 -11.606 -6.219 -15.719 z"
       opacity="0.1"
       id="path25" />
    <path
       d="m 31.25 2.375 c 8.615 3.154 14.75 11.417 14.75 21.13 c 0 12.426 -10.07 22.5 -22.5 22.5 c -9.708 0 -17.971 -6.135 -21.12 -14.75 a 23 23 0 0 0 44.875 -7 a 23 23 0 0 0 -16 -21.875 z"
       opacity="0.2"
       id="path27" />
  </g>
  <g
     id="g29">
    <path
       d="m 24 1 c 12.703 0 23 10.297 23 23 c 0 12.703 -10.297 23 -23 23 -12.703 0 -23 -10.297 -23 -23 0 -12.703 10.297 -23 23 -23 z"
       fill="url(#linearGradient3764)"
       fill-opacity="1"
       id="path31" />
  </g>
  <g
     id="g33" />
  <g
     id="g59">
    <path
       d="m 40.03 7.531 c 3.712 4.084 5.969 9.514 5.969 15.469 0 12.703 -10.297 23 -23 23 c -5.954 0 -11.384 -2.256 -15.469 -5.969 4.178 4.291 10.01 6.969 16.469 6.969 c 12.703 0 23 -10.298 23 -23 0 -6.462 -2.677 -12.291 -6.969 -16.469 z"
       opacity="0.1"
       id="path61" />
  </g>
  <g
     id="g3457"
     style="opacity:0.1;fill:#000000;fill-opacity:1"
     transform="matrix(3.543307,0,0,3.543307,1,2.0000001)">
    <path
       sodipodi:nodetypes="ccccccccc"
       inkscape:connector-curvature="0"
       id="path3453"
       d="m 3.3866667,4.2333334 0,3.9511112 6.4911116,0 0,-1.9755556 -0.282222,-1.6933334 -2.5400006,0 -0.2822222,-0.5644444 -3.1044446,0 c -0.1411111,0 -0.2822222,0.1411111 -0.2822222,0.2822222 z"
       style="fill:#000000;fill-opacity:1;stroke:none" />
    <path
       style="fill:#000000;fill-opacity:1;stroke:none"
       d="m 10.16,4.8166021 0,4.2145092 -6.7733333,0 0,-3.9511112 3.3866668,0 0.2822223,-0.5644445 2.8222225,0 c 0.1411107,0 0.2822217,0.1505091 0.2822217,0.3010465 z"
       id="path3455"
       inkscape:connector-curvature="0"
       sodipodi:nodetypes="cccccccc" />
  </g>
  <path
     sodipodi:nodetypes="ccccccccc"
     inkscape:connector-curvature="0"
     id="path3029"
     d="m 12,16 0,14 23.000003,0 0,-7 L 34.000002,17 25,17 24,15 13,15 c -0.5,0 -1,0.5 -1,1 z"
     style="fill:#ff8f00;fill-opacity:1;stroke:none" />
  <rect
     style="fill:#fffdf0;fill-opacity:1;stroke:none"
     id="rect3799"
     width="10.999998"
     height="3.9999745"
     x="14"
     y="18.000002" />
  <path
     style="fill:#ffca28;fill-opacity:1;stroke:none"
     d="m 35.999999,18.0667 0,14.9333 L 12,33 l 0,-14 12,0 1,-2 10.000002,0 c 0.499997,0 0.999997,0.5333 0.999997,1.0667 z"
     id="rect2987"
     inkscape:connector-curvature="0"
     sodipodi:nodetypes="cccccccc" />
  <path
     style="opacity:0.4;fill:#403018;fill-opacity:1;fill-rule:evenodd;stroke:none"
     d="M 18 20 L 18 22.21875 C 17.40427 22.478506 17 22.945952 17 23.5 C 17 24.054048 17.40427 24.521494 18 24.78125 L 18 32 L 20 32 L 20 24.78125 C 20.59573 24.521494 21 24.054048 21 23.5 C 21 22.945952 20.59573 22.478506 20 22.21875 L 20 20 L 18 20 z M 23 20 L 23 27.21875 C 22.40427 27.478506 22 27.945952 22 28.5 C 22 29.054048 22.40427 29.521494 23 29.78125 L 23 32 L 25 32 L 25 29.78125 C 25.59573 29.521494 26 29.054048 26 28.5 C 26 27.945952 25.59573 27.478506 25 27.21875 L 25 20 L 23 20 z M 28 20 L 28 22.21875 C 27.40427 22.478506 27 22.945952 27 23.5 C 27 24.054048 27.40427 24.521494 28 24.78125 L 28 32 L 30 32 L 30 24.78125 C 30.59573 24.521494 31 24.054048 31 23.5 C 31 22.945952 30.59573 22.478506 30 22.21875 L 30 20 L 28 20 z "
     id="rect3104" />
  <path
     style="fill:none;stroke:none"
     d="M 24,17.5 21.5,19 23,19 z"
     id="path3801"
     inkscape:connector-curvature="0" />
</svg>

<svg xmlns="http://www.w3.org/2000/svg" viewBox="0 0 48 48">
 <defs>
  <linearGradient id="linearGradient3764" x1="1" x2="47" gradientUnits="userSpaceOnUse" gradientTransform="matrix(0,-1,1,0,-1.5e-6,47.999998)">
   <stop style="stop-color:#b94f33;stop-opacity:1"/>
   <stop offset="1" style="stop-color:#c85637;stop-opacity:1"/>
  </linearGradient>
 </defs>
 <g>
  <path d="m 36.31 5 c 5.859 4.062 9.688 10.831 9.688 18.5 c 0 12.426 -10.07 22.5 -22.5 22.5 c -7.669 0 -14.438 -3.828 -18.5 -9.688 c 1.037 1.822 2.306 3.499 3.781 4.969 c 4.085 3.712 9.514 5.969 15.469 5.969 c 12.703 0 23 -10.298 23 -23 c 0 -5.954 -2.256 -11.384 -5.969 -15.469 c -1.469 -1.475 -3.147 -2.744 -4.969 -3.781 z m 4.969 3.781 c 3.854 4.113 6.219 9.637 6.219 15.719 c 0 12.703 -10.297 23 -23 23 c -6.081 0 -11.606 -2.364 -15.719 -6.219 c 4.16 4.144 9.883 6.719 16.219 6.719 c 12.703 0 23 -10.298 23 -23 c 0 -6.335 -2.575 -12.06 -6.719 -16.219 z" style="opacity:0.05"/>
  <path d="m 41.28 8.781 c 3.712 4.085 5.969 9.514 5.969 15.469 c 0 12.703 -10.297 23 -23 23 c -5.954 0 -11.384 -2.256 -15.469 -5.969 c 4.113 3.854 9.637 6.219 15.719 6.219 c 12.703 0 23 -10.298 23 -23 c 0 -6.081 -2.364 -11.606 -6.219 -15.719 z" style="opacity:0.1"/>
  <path d="m 31.25 2.375 c 8.615 3.154 14.75 11.417 14.75 21.13 c 0 12.426 -10.07 22.5 -22.5 22.5 c -9.708 0 -17.971 -6.135 -21.12 -14.75 a 23 23 0 0 0 44.875 -7 a 23 23 0 0 0 -16 -21.875 z" style="opacity:0.2"/>
 </g>
 <g>
  <path d="m 24 1 c 12.703 0 23 10.297 23 23 c 0 12.703 -10.297 23 -23 23 -12.703 0 -23 -10.297 -23 -23 0 -12.703 10.297 -23 23 -23 z" style="fill:url(#linearGradient3764);fill-opacity:1"/>
 </g>
 <g>
  <path d="m 40.03 7.531 c 3.712 4.084 5.969 9.514 5.969 15.469 0 12.703 -10.297 23 -23 23 c -5.954 0 -11.384 -2.256 -15.469 -5.969 4.178 4.291 10.01 6.969 16.469 6.969 c 12.703 0 23 -10.298 23 -23 0 -6.462 -2.677 -12.291 -6.969 -16.469 z" style="opacity:0.1"/>
 </g>
 <g transform="matrix(3.543307,0,0,3.543307,1,2.0000001)" style="fill:#000;opacity:0.1;fill-opacity:1">
  <path d="m 14 16 c -0.5 0 -1 0.498 -1 0.998 l -0.002 0 c 0 5.669 0 11.337 0 17.01 l 23.998 0 0 -14.932 c 0 -0.531 -0.5 -1.066 -1 -1.066 l -0.996 0 c -2.987 -0.016 -6 -0.008 -9 -0.008 l -1 -1.998 z" transform="matrix(0.28222223,0,0,0.28222223,-0.28222223,-0.56444449)" style="fill:#000;stroke:none"/>
 </g>
 <g>
  <path d="m 12 16 0 14 23 0 0 -7 -1 -6 -9 0 -1 -2 -11 0 c -0.5 0 -1 0.5 -1 1 z" style="fill:#ff8f00;fill-opacity:1;stroke:none"/>
  <rect y="18" x="14" height="4" width="11" style="fill:#fffdf0;fill-opacity:1;stroke:none"/>
  <path d="m 36 18.07 0 14.933 -24 0 0 -14 12 0 1 -2 10 0 c 0.5 0 1 0.533 1 1.067 z" style="fill:#ffca28;fill-opacity:1;stroke:none"/>
  <path d="m 18 20 0 2.219 c -0.596 0.26 -1 0.727 -1 1.281 0 0.554 0.404 1.021 1 1.281 l 0 7.219 2 0 0 -7.219 c 0.596 -0.26 1 -0.727 1 -1.281 0 -0.554 -0.404 -1.021 -1 -1.281 l 0 -2.219 -2 0 m 5 0 0 7.219 c -0.596 0.26 -1 0.727 -1 1.281 0 0.554 0.404 1.021 1 1.281 l 0 2.219 2 0 0 -2.219 c 0.596 -0.26 1 -0.727 1 -1.281 0 -0.554 -0.404 -1.021 -1 -1.281 l 0 -7.219 -2 0 m 5 0 0 2.219 c -0.596 0.26 -1 0.727 -1 1.281 0 0.554 0.404 1.021 1 1.281 l 0 7.219 2 0 0 -7.219 c 0.596 -0.26 1 -0.727 1 -1.281 0 -0.554 -0.404 -1.021 -1 -1.281 l 0 -2.219 -2 0" style="fill:#403018;opacity:0.4;fill-opacity:1;stroke:none;fill-rule:evenodd"/>
 </g>
</svg>
